src/categories-icons-sprite/categories/svg-cat-sport-bads.svg

<svg width="23" height="34" viewBox="0 0 23 34" fill="none" xmlns="http://www.w3.org/2000/svg">
<path class="p-666666" d="M15.1048 0H6.99023C5.88566 0 4.99023 0.89543 4.99023 2V5.42412H17.1048V2C17.1048 0.895431 16.2094 0 15.1048 0Z" fill="#5FBEFF"/>
<path class="p-4D4D4D" d="M15.1047 0H9.02832V5.42412H17.1047V2C17.1047 0.895431 16.2093 0 15.1047 0Z" fill="#58ADE5"/>
<path class="p-333333" d="M15.1047 0H13.0664V5.42412H17.1047V2C17.1047 0.895431 16.2092 0 15.1047 0Z" fill="#4D98CB"/>
<path class="p-79D60D" d="M20.0963 5.03931H2C0.895431 5.03931 0 5.93474 0 7.03931V32.0001C0 33.1047 0.89543 34.0001 2 34.0001H20.0963C21.2009 34.0001 22.0963 33.1047 22.0963 32.0001V7.03931C22.0963 5.93474 21.2009 5.03931 20.0963 5.03931Z" fill="#65B3E7"/>
<path class="p-3CC602" d="M20.097 5.03931H11.0488V34.0001H20.097C21.2016 34.0001 22.097 33.1047 22.097 32.0001V7.03931C22.097 5.93474 21.2016 5.03931 20.097 5.03931Z" fill="#4D98CB"/>
<path class="p-F1F1F2" d="M22.0963 12.2195H0V26.8198H22.0963V12.2195Z" fill="#B9DFFC"/>
<path class="p-E6E6E6" d="M22.0969 12.2195H11.0488V26.8197H22.0969V12.2195Z" fill="#A1D1FD"/>
<path class="p-3CC602" d="M9.1076 17.4318C7.20558 19.3338 7.60409 22.8161 7.60409 22.8161C7.60409 22.8161 11.0863 23.2146 12.9884 21.3126C14.8904 19.4105 14.4919 15.9283 14.4919 15.9283C14.4919 15.9283 11.0096 15.5298 9.1076 17.4318Z" fill="#5FBEFF"/>
<path class="p-00AC00" d="M14.4922 15.9282C14.4922 15.9282 12.7443 15.7285 11.0488 16.2881V22.4556C11.7461 22.2252 12.4345 21.8666 12.9886 21.3125C14.8907 19.4105 14.4922 15.9282 14.4922 15.9282Z" fill="#58ADE5"/>
</svg>

<svg width="23" height="34" fill="none" xmlns="http://www.w3.org/2000/svg"><path class="p-666666" d="M15.105 0H6.99a2 2 0 00-2 2v3.424h12.115V2a2 2 0 00-2-2z" fill="#5FBEFF"/><path class="p-4D4D4D" d="M15.105 0H9.028v5.424h8.077V2a2 2 0 00-2-2z" fill="#58ADE5"/><path class="p-333333" d="M15.105 0h-2.039v5.424h4.039V2a2 2 0 00-2-2z" fill="#4D98CB"/><path class="p-79D60D" d="M20.096 5.04H2a2 2 0 00-2 2V32a2 2 0 002 2h18.096a2 2 0 002-2V7.04a2 2 0 00-2-2z" fill="#65B3E7"/><path class="p-3CC602" d="M20.097 5.04h-9.048V34h9.048a2 2 0 002-2V7.04a2 2 0 00-2-2z" fill="#4D98CB"/><path class="p-F1F1F2" d="M22.096 12.22H0v14.6h22.096v-14.6z" fill="#B9DFFC"/><path class="p-E6E6E6" d="M22.097 12.22H11.049v14.6h11.048v-14.6z" fill="#A1D1FD"/><path class="p-3CC602" d="M9.108 17.432c-1.902 1.902-1.504 5.384-1.504 5.384s3.482.399 5.384-1.503c1.902-1.902 1.504-5.385 1.504-5.385s-3.482-.398-5.384 1.504z" fill="#5FBEFF"/><path class="p-00AC00" d="M14.492 15.928s-1.748-.2-3.443.36v6.168c.697-.23 1.386-.59 1.94-1.143 1.902-1.902 1.503-5.385 1.503-5.385z" fill="#58ADE5"/></svg>
